X: 43059
T: Wind That Shakes The Barley, The
R: reel
M: 4/4
K: Eminor
F|GFEF|GFEF|GGGB|AFDF|
GFGA|BcBA|GEFD|EE2F|
GFGA|BcBA|GFGA|BEEF|
GFGA|BcBA|GEFD|EE2||

